view/frontend/web/svg/awesomeicons6/solid/table-list.svg

<svg xmlns="http://www.w3.org/2000/svg" fill="currentColor" viewBox="0 0 512 512"><!--! Font Awesome Free 6.4.0 by @fontawesome - https://fontawesome.com License - https://fontawesome.com/license/free (Icons: CC BY 4.0, Fonts: SIL OFL 1.1, Code: MIT License) Copyright 2023 Fonticons, Inc. --><path d="M0 96C0 60.7 28.7 32 64 32H448c35.3 0 64 28.7 64 64V416c0 35.3-28.7 64-64 64H64c-35.3 0-64-28.7-64-64V96zm64 0v64h64V96H64zm384 0H192v64H448V96zM64 224v64h64V224H64zm384 0H192v64H448V224zM64 352v64h64V352H64zm384 0H192v64H448V352z"/></svg>

<svg xmlns="http://www.w3.org/2000/svg" fill="currentColor" viewBox="0 0 512 512"><!--! Font Awesome Free 6.1.1 by @fontawesome - https://fontawesome.com License - https://fontawesome.com/license/free (Icons: CC BY 4.0, Fonts: SIL OFL 1.1, Code: MIT License) Copyright 2022 Fonticons, Inc. --><path d="M0 96C0 60.65 28.65 32 64 32H448C483.3 32 512 60.65 512 96V416C512 451.3 483.3 480 448 480H64C28.65 480 0 451.3 0 416V96zM64 160H128V96H64V160zM448 96H192V160H448V96zM64 288H128V224H64V288zM448 224H192V288H448V224zM64 416H128V352H64V416zM448 352H192V416H448V352z"/></svg>
